assets/images/git.svg

<svg width="61" height="30" viewBox="0 0 61 30" fill="none" xmlns="http://www.w3.org/2000/svg">
<path d="M41.1348 17.5176C41.1348 17.5176 41.1348 16.75 41.1348 15.2148C41.1348 15.2148 44.0352 15.2148 49.8359 15.2148C49.8359 15.2148 49.8359 15.3232 49.8359 15.54C49.8359 16.3955 49.6689 17.2246 49.335 18.0273C49.0068 18.8242 48.5352 19.542 47.9199 20.1807C46.584 21.5518 44.9053 22.2373 42.8838 22.2373C41.876 22.2373 40.9238 22.0586 40.0273 21.7012C39.1367 21.3438 38.3691 20.8604 37.7246 20.251C37.0859 19.6357 36.5791 18.9004 36.2041 18.0449C35.835 17.1895 35.6504 16.2812 35.6504 15.3203C35.6504 14.377 35.832 13.4834 36.1953 12.6396C36.5645 11.79 37.0596 11.0605 37.6807 10.4512C38.3018 9.8418 39.043 9.3584 39.9043 9.00098C40.7715 8.64355 41.6855 8.46484 42.6465 8.46484C43.6016 8.46484 44.5244 8.64062 45.415 8.99219C46.3057 9.34375 47.0791 9.83594 47.7354 10.4688C48.3975 11.1016 48.8691 11.8135 49.1504 12.6045H46.25C45.8398 12.0303 45.3213 11.5938 44.6943 11.2949C44.0674 10.9902 43.3672 10.8379 42.5938 10.8379C41.9551 10.8379 41.3545 10.9521 40.792 11.1807C40.2354 11.4033 39.7637 11.7227 39.377 12.1387C38.9961 12.543 38.6914 13.0381 38.4629 13.624C38.2402 14.2041 38.1289 14.7812 38.1289 15.3555C38.1289 16.6328 38.5713 17.7021 39.4561 18.5635C40.3408 19.4248 41.4365 19.8555 42.7432 19.8555C43.6221 19.8555 44.4014 19.6504 45.0811 19.2402C45.7607 18.8301 46.2822 18.2559 46.6455 17.5176H41.1348ZM51.4092 22C51.4092 22 51.4092 18.6748 51.4092 12.0244C51.4092 12.0244 52.2061 12.0244 53.7998 12.0244C53.7998 12.0244 53.7998 15.3496 53.7998 22C53.7998 22 53.0029 22 51.4092 22ZM51.4092 10.9521C51.4092 10.9521 51.4092 10.2021 51.4092 8.70215C51.4092 8.70215 52.2061 8.70215 53.7998 8.70215C53.7998 8.70215 53.7998 9.45215 53.7998 10.9521C53.7998 10.9521 53.0029 10.9521 51.4092 10.9521ZM56.1816 22C56.1816 22 56.1816 19.4014 56.1816 14.2041C56.1816 14.2041 55.792 14.2041 55.0127 14.2041C55.0127 14.2041 55.0127 13.4775 55.0127 12.0244C55.0127 12.0244 55.4023 12.0244 56.1816 12.0244C56.1816 12.0244 56.1816 10.917 56.1816 8.70215C56.1816 8.70215 56.9785 8.70215 58.5723 8.70215C58.5723 8.70215 58.5723 9.80957 58.5723 12.0244C58.5723 12.0244 59.0527 12.0244 60.0137 12.0244C60.0137 12.0244 60.0137 12.751 60.0137 14.2041C60.0137 14.2041 59.5332 14.2041 58.5723 14.2041C58.5723 14.2041 58.5723 16.8027 58.5723 22C58.5723 22 57.7754 22 56.1816 22Z" fill="#111111"/>
<path d="M29.4343 13.6636L16.336 0.565762C15.5821 -0.188587 14.3587 -0.188587 13.6039 0.565762L10.8839 3.28573L14.3343 6.73615C15.1361 6.46521 16.0555 6.64697 16.6947 7.28612C17.3369 7.92938 17.5173 8.8567 17.2398 9.66109L20.565 12.9865C21.3695 12.7093 22.2978 12.8886 22.9403 13.5322C23.8383 14.4299 23.8383 15.8848 22.9403 16.7831C22.0421 17.6814 20.5872 17.6814 19.6885 16.7831C19.013 16.1069 18.8461 15.1149 19.1881 14.2827L16.0871 11.1816L16.0867 19.3424C16.3115 19.4535 16.5168 19.6003 16.6947 19.7771C17.5927 20.6748 17.5927 22.1298 16.6947 23.0288C15.7964 23.9267 14.3408 23.9267 13.4439 23.0288C12.5459 22.1298 12.5459 20.6749 13.4439 19.7773C13.6591 19.5619 13.9148 19.3914 14.1964 19.2756V11.0388C13.9144 10.9237 13.6585 10.7531 13.4439 10.5371C12.7635 9.85761 12.5999 8.85928 12.9485 8.02383L9.54728 4.62217L0.566017 13.603C-0.188672 14.3581 -0.188672 15.5816 0.566017 16.3361L13.6646 29.4342C14.4187 30.1886 15.6419 30.1886 16.3969 29.4342L29.4342 16.3969C30.1886 15.6422 30.1887 14.4179 29.4343 13.6636Z" fill="#DE4C36"/>
</svg>

<svg width="61" height="30" fill="none" xmlns="http://www.w3.org/2000/svg"><path d="M41.135 17.518v-2.303h8.7v.325c0 .855-.166 1.685-.5 2.487a6.833 6.833 0 0 1-1.415 2.154c-1.336 1.37-3.015 2.056-5.036 2.056a7.642 7.642 0 0 1-2.857-.536 7.23 7.23 0 0 1-2.302-1.45 6.836 6.836 0 0 1-2.075-4.93 6.854 6.854 0 0 1 2.03-4.87 6.925 6.925 0 0 1 2.224-1.45 7.125 7.125 0 0 1 2.742-.536c.956 0 1.878.176 2.769.527a7.01 7.01 0 0 1 2.32 1.477c.663.633 1.134 1.345 1.415 2.136h-2.9a4.001 4.001 0 0 0-1.556-1.31c-.627-.305-1.327-.457-2.1-.457a4.74 4.74 0 0 0-1.802.343 3.858 3.858 0 0 0-1.415.958c-.38.404-.686.9-.914 1.485a4.803 4.803 0 0 0-.334 1.731c0 1.278.442 2.347 1.327 3.209.885.86 1.98 1.291 3.287 1.291.88 0 1.658-.205 2.338-.615a4.053 4.053 0 0 0 1.564-1.722h-5.51ZM51.409 22v-9.976h2.39V22h-2.39Zm0-11.048v-2.25h2.39v2.25h-2.39ZM56.182 22v-7.796h-1.17v-2.18h1.17V8.702h2.39v3.322h1.442v2.18h-1.442V22h-2.39Z" fill="#111"/><path d="M29.434 13.664 16.336.566a1.932 1.932 0 0 0-2.732 0l-2.72 2.72 3.45 3.45a2.293 2.293 0 0 1 2.906 2.925l3.325 3.325a2.298 2.298 0 1 1-1.377 1.296l-3.1-3.1-.001 8.16a2.3 2.3 0 1 1-1.89-.067V11.04a2.298 2.298 0 0 1-1.248-3.015L9.546 4.622.566 13.603a1.933 1.933 0 0 0 0 2.733l13.099 13.098a1.932 1.932 0 0 0 2.732 0l13.037-13.037a1.933 1.933 0 0 0 0-2.733Z" fill="#DE4C36"/></svg>
